;FLAVOR:Marlin
;TIME:15873
;Filament used: 10.3299m
;Layer height: 0.2
;MINX:32.84
;MINY:45
;MINZ:0.2
;MAXX:179.519
;MAXY:175
;MAXZ:25
;Generated with Cura_SteamEngine 4.8.0
M140 S70
M105
M190 S70
M104 S225
M105
M109 S225
M82 ;absolute extrusion mode
; Ender 3 Custom Start G-code
G92 E0 ; Reset Extruder
G28 ; Home all axes
G1 Z2.0 F3000 ; Move Z Axis up little to prevent scratching of Heat Bed
G1 X0.1 Y20 Z0.3 F5000.0 ; Move to start position
G1 X0.1 Y200.0 Z0.3 F1500.0 E15 ; Draw the first line
G1 X0.4 Y200.0 Z0.3 F5000.0 ; Move to side a little
G1 X0.4 Y20 Z0.3 F1500.0 E30 ; Draw the second line
G92 E0 ; Reset Extruder
G1 Z2.0 F3000 ; Move Z Axis up little to prevent scratching of Heat Bed
G1 X5 Y20 Z0.3 F5000.0 ; Move over to prevent blob squish
G92 E0
G92 E0
G1 F1500 E-6.5
;LAYER_COUNT:125
;LAYER:0
M107
G0 F6000 X37.952 Y56.72 Z0.2
;TYPE:SKIRT
G1 F1500 E0
G1 F1200 X38.48 Y56.386 E0.02078
G1 X39.951 Y55.479 E0.07826
G1 X42.1 Y54.068 E0.16376
G1 X44.142 Y52.642 E0.2466
G1 X46.169 Y51.141 E0.33049
G1 X48.098 Y49.625 E0.41209
G1 X49.418 Y48.511 E0.46954
G1 X49.574 Y48.391 E0.47609
G1 X50.593 Y47.545 E0.52014
G1 X51.34 Y46.977 E0.55135
G1 X52.132 Y46.475 E0.58254
G1 X52.964 Y46.043 E0.61372
G1 X53.83 Y45.683 E0.64491
G1 X54.724 Y45.398 E0.67612
G1 X55.638 Y45.19 E0.7073
G1 X56.567 Y45.061 E0.73849
G1 X57.456 Y45.012 E0.76811
G1 X58.372 Y45 E0.79858
G1 X83.515 Y45.001 E1.63484
G1 X84.219 Y45.011 E1.65825
G1 X85.156 Y45.064 E1.68947
G1 X86.084 Y45.197 E1.72065
G1 X86.998 Y45.409 E1.75185
G1 X87.89 Y45.697 E1.78303
G1 X88.737 Y46.052 E1.81358
G1 X89.827 Y46.563 E1.85362
G1 X92.134 Y47.605 E1.93781
G1 X94.5 Y48.597 E2.02314
G1 X96.843 Y49.498 E2.10663
G1 X99.192 Y50.327 E2.18948
G1 X101.598 Y51.101 E2.27355
G1 X103.996 Y51.798 E2.35661
G1 X106.459 Y52.439 E2.44125
G1 X108.934 Y53.011 E2.52574
G1 X111.354 Y53.495 E2.60783
G1 X113.851 Y53.923 E2.69209
G1 X116.338 Y54.277 E2.77564
G1 X118.856 Y54.563 E2.85993
G1 X121.348 Y54.776 E2.94311
G1 X123.846 Y54.918 E3.02633
G1 X126.423 Y54.991 E3.11208
G1 X127.726 Y55 E3.15542
G1 X167.985 Y55.001 E4.49444
G1 X168.683 Y55.012 E4.51765
G1 X169.62 Y55.067 E4.54887
G1 X170.548 Y55.201 E4.58006
G1 X171.461 Y55.414 E4.61124
G1 X172.353 Y55.704 E4.64244
G1 X173.217 Y56.069 E4.67363
G1 X174.047 Y56.506 E4.70483
G1 X174.836 Y57.012 E4.73601
G1 X175.58 Y57.584 E4.76722
G1 X176.272 Y58.217 E4.79841
G1 X176.908 Y58.906 E4.8296
G1 X177.483 Y59.648 E4.86082
G1 X177.992 Y60.435 E4.89199
G1 X178.433 Y61.263 E4.9232
G1 X178.801 Y62.125 E4.95437
G1 X179.094 Y63.016 E4.98557
G1 X179.311 Y63.929 E5.01678
G1 X179.449 Y64.856 E5.04795
G1 X179.506 Y65.701 E5.07612
G1 X179.515 Y66.02 E5.08673
G1 X179.519 Y66.33 E5.09705
G1 X179.518 Y153.4 E7.99301
G1 X179.509 Y154.127 E8.01719
G1 X179.458 Y155.064 E8.0484
G1 X179.326 Y155.992 E8.07957
G1 X179.117 Y156.906 E8.11076
G1 X178.83 Y157.799 E8.14196
G1 X178.468 Y158.665 E8.17317
G1 X178.034 Y159.496 E8.20436
G1 X177.53 Y160.287 E8.23555
G1 X176.961 Y161.032 E8.26673
G1 X176.33 Y161.727 E8.29795
G1 X175.643 Y162.365 E8.32914
G1 X174.904 Y162.942 E8.36032
G1 X174.118 Y163.454 E8.39152
G1 X173.292 Y163.897 E8.42269
G1 X172.43 Y164.269 E8.45392
G1 X171.541 Y164.565 E8.48508
G1 X170.629 Y164.785 E8.51629
G1 X169.702 Y164.926 E8.54747
G1 X168.818 Y164.987 E8.57695
G1 X168.497 Y164.996 E8.58763
G1 X168.189 Y165 E8.59787
G1 X127.734 Y165 E9.94341
G1 X125.126 Y165.037 E10.03016
G1 X122.605 Y165.144 E10.11409
G1 X120.11 Y165.321 E10.19728
G1 X117.61 Y165.569 E10.28084
G1 X115.117 Y165.888 E10.36443
G1 X112.624 Y166.279 E10.44836
G1 X110.134 Y166.742 E10.5326
G1 X107.67 Y167.272 E10.61643
G1 X105.268 Y167.861 E10.69868
G1 X102.812 Y168.537 E10.78341
G1 X100.402 Y169.275 E10.86724
G1 X98.01 Y170.082 E10.9512
G1 X95.67 Y170.945 E11.03416
G1 X93.317 Y171.889 E11.11848
G1 X90.989 Y172.902 E11.20292
G1 X89.755 Y173.471 E11.24812
G1 X88.728 Y173.951 E11.28582
G1 X87.862 Y174.312 E11.31703
G1 X86.724 Y174.662 E11.35663
G1 X85.805 Y174.85 E11.38783
G1 X84.874 Y174.96 E11.41901
G1 X84.216 Y174.989 E11.44092
G1 X83.37 Y175 E11.46906
G1 X58.164 Y174.999 E12.30741
G1 X57.461 Y174.989 E12.3308
G1 X56.524 Y174.936 E12.36201
G1 X55.596 Y174.803 E12.39319
G1 X54.682 Y174.591 E12.4244
G1 X53.79 Y174.303 E12.45557
G1 X52.925 Y173.939 E12.48679
G1 X52.095 Y173.503 E12.51797
G1 X51.304 Y172.998 E12.54918
G1 X50.599 Y172.46 E12.57868
G1 X49.833 Y171.824 E12.61179
G1 X49.023 Y171.132 E12.64723
G1 X47.082 Y169.567 E12.73016
G1 X45.074 Y168.039 E12.81408
G1 X43.027 Y166.571 E12.89786
G1 X40.918 Y165.147 E12.9825
G1 X38.809 Y163.809 E13.06557
G1 X38.078 Y163.359 E13.09412
G1 X37.302 Y162.833 E13.1253
G1 X36.572 Y162.243 E13.15652
G1 X35.896 Y161.594 E13.18769
G1 X35.278 Y160.888 E13.2189
G1 X34.722 Y160.133 E13.25008
G1 X34.232 Y159.333 E13.28128
G1 X33.812 Y158.495 E13.31246
G1 X33.465 Y157.623 E13.34368
G1 X33.194 Y156.726 E13.37484
G1 X33 Y155.808 E13.40605
G1 X32.885 Y154.877 E13.43725
G1 X32.853 Y154.294 E13.45667
G1 X32.844 Y153.964 E13.46765
G1 X32.84 Y153.664 E13.47763
G1 X32.841 Y66.51 E16.37638
G1 X32.851 Y65.841 E16.39864
G1 X32.905 Y64.904 E16.42985
G1 X33.039 Y63.976 E16.46104
G1 X33.251 Y63.062 E16.49225
G1 X33.54 Y62.17 E16.52343
G1 X33.904 Y61.306 E16.55461
G1 X34.341 Y60.476 E16.58581
G1 X34.846 Y59.686 E16.617
G1 X35.417 Y58.942 E16.64819
G1 X36.05 Y58.249 E16.67941
G1 X36.739 Y57.613 E16.7106
G1 X37.479 Y57.038 E16.74176
G1 X37.952 Y56.72 E16.76072
G0 F6000 X38.166 Y57.058
G1 F1200 X38.69 Y56.726 E16.78135
G1 X40.2 Y55.795 E16.84036
G1 X42.302 Y54.414 E16.92401
G1 X44.363 Y52.975 E17.00761
G1 X46.408 Y51.461 E17.09224
G1 X48.381 Y49.911 E17.17569
G1 X49.677 Y48.817 E17.2321
G1 X49.808 Y48.715 E17.23762
G1 X50.848 Y47.853 E17.28255
G1 X51.582 Y47.296 E17.3132
G1 X52.361 Y46.805 E17.34382
G1 X53.179 Y46.384 E17.37442
G1 X54.031 Y46.035 E17.40504
G1 X54.911 Y45.762 E17.43569
G1 X55.81 Y45.566 E17.46629
G1 X56.723 Y45.449 E17.49691
G1 X57.462 Y45.412 E17.52152
G1 X58.372 Y45.4 E17.55179
G1 X83.359 Y45.4 E18.38286
G1 X84.214 Y45.411 E18.4113
G1 X85.133 Y45.464 E18.44191
G1 X86.044 Y45.597 E18.47254
G1 X86.94 Y45.808 E18.50315
G1 X87.814 Y46.096 E18.53376
G1 X88.567 Y46.414 E18.56095
G1 X89.642 Y46.919 E18.60045
G1 X91.994 Y47.98 E18.68627
G1 X94.368 Y48.976 E18.7719
G1 X96.67 Y49.861 E18.85392
G1 X99.073 Y50.709 E18.93868
G1 X101.479 Y51.483 E19.02274
G1 X103.888 Y52.183 E19.10618
G1 X106.373 Y52.83 E19.19159
G1 X108.831 Y53.398 E19.27549
G1 X111.28 Y53.888 E19.35856
G1 X113.799 Y54.32 E19.44357
G1 X116.308 Y54.677 E19.52786
G1 X118.778 Y54.957 E19.61054
G1 X121.328 Y55.175 E19.69566
G1 X123.846 Y55.318 E19.77954
G1 X126.41 Y55.391 E19.86486
G1 X127.723 Y55.4 E19.90853
G1 X167.979 Y55.401 E21.24745
G1 X168.677 Y55.412 E21.27067
G1 X169.596 Y55.467 E21.30129
G1 X170.507 Y55.601 E21.33191
G1 X171.403 Y55.813 E21.36254
G1 X172.277 Y56.103 E21.39316
G1 X173.122 Y56.467 E21.42377
G1 X173.933 Y56.903 E21.45439
G1 X174.703 Y57.408 E21.48502
G1 X175.426 Y57.978 E21.51564
G1 X176.097 Y58.608 E21.54625
G1 X176.711 Y59.295 E21.5769
G1 X177.262 Y60.032 E21.6075
G1 X177.748 Y60.814 E21.63813
G1 X178.164 Y61.635 E21.66874
G1 X178.508 Y62.489 E21.69936
G1 X178.776 Y63.37 E21.72999
G1 X178.966 Y64.271 E21.76062
G1 X179.078 Y65.184 E21.79121
G1 X179.106 Y65.712 E21.8088
G1 X179.115 Y66.031 E21.81941
G1 X179.119 Y66.33 E21.82936
G1 X179.118 Y153.395 E24.72515
G1 X179.109 Y154.122 E24.74933
G1 X179.058 Y155.041 E24.77994
G1 X178.927 Y155.953 E24.81059
G1 X178.717 Y156.849 E24.8412
G1 X178.431 Y157.724 E24.87182
G1 X178.07 Y158.571 E24.90244
G1 X177.636 Y159.383 E24.93306
G1 X177.134 Y160.155 E24.96369
G1 X176.566 Y160.88 E24.99432
G1 X175.938 Y161.553 E25.02494
G1 X175.254 Y162.169 E25.05555
G1 X174.519 Y162.723 E25.08617
G1 X173.739 Y163.212 E25.11679
G1 X172.919 Y163.631 E25.14741
G1 X172.066 Y163.977 E25.17803
G1 X171.186 Y164.248 E25.20865
G1 X170.286 Y164.441 E25.23927
G1 X169.372 Y164.556 E25.26991
G1 X168.807 Y164.587 E25.28873
G1 X168.486 Y164.596 E25.29941
G1 X168.189 Y164.6 E25.30929
G1 X127.728 Y164.6 E26.65503
G1 X125.103 Y164.637 E26.74234
G1 X122.595 Y164.744 E26.82584
G1 X120.075 Y164.922 E26.90986
G1 X117.56 Y165.171 E26.99392
G1 X115.071 Y165.49 E27.07738
G1 X112.519 Y165.891 E27.1633
G1 X110.088 Y166.343 E27.24554
G1 X107.596 Y166.879 E27.33032
G1 X105.139 Y167.481 E27.41446
G1 X102.694 Y168.154 E27.49881
G1 X100.294 Y168.889 E27.58229
G1 X97.88 Y169.703 E27.66702
G1 X95.53 Y170.57 E27.75033
G1 X93.144 Y171.528 E27.83585
G1 X90.82 Y172.539 E27.92014
G1 X89.64 Y173.083 E27.96336
G1 X88.558 Y173.589 E28.00309
G1 X87.708 Y173.942 E28.0337
G1 X86.627 Y174.274 E28.07131
G1 X85.725 Y174.458 E28.10193
G1 X84.81 Y174.563 E28.13256
G1 X84.211 Y174.589 E28.1525
G1 X83.37 Y174.6 E28.18048
G1 X58.169 Y174.599 E29.01867
G1 X57.466 Y174.589 E29.04205
G1 X56.547 Y174.536 E29.07267
G1 X55.636 Y174.403 E29.10329
G1 X54.74 Y174.192 E29.13391
G1 X53.866 Y173.904 E29.16451
G1 X53.019 Y173.541 E29.19516
G1 X52.208 Y173.106 E29.22577
G1 X51.437 Y172.602 E29.25641
G1 X50.854 Y172.152 E29.2809
G1 X50.093 Y171.52 E29.3138
G1 X49.288 Y170.832 E29.34902
G1 X47.308 Y169.236 E29.43361
G1 X45.31 Y167.716 E29.51711
G1 X43.255 Y166.242 E29.60122
G1 X41.15 Y164.821 E29.68569
G1 X38.993 Y163.453 E29.77065
G1 X38.288 Y163.018 E29.7982
G1 X37.526 Y162.502 E29.82881
G1 X36.812 Y161.921 E29.85943
G1 X36.15 Y161.28 E29.89007
G1 X35.547 Y160.585 E29.92068
G1 X35.007 Y159.84 E29.95128
G1 X34.533 Y159.05 E29.98192
G1 X34.129 Y158.223 E30.01254
G1 X33.799 Y157.364 E30.04314
G1 X33.544 Y156.479 E30.07378
G1 X33.368 Y155.575 E30.10441
G1 X33.253 Y154.283 E30.14755
G1 X33.244 Y153.953 E30.15853
G1 X33.24 Y153.664 E30.16814
G1 X33.241 Y66.516 E33.0667
G1 X33.251 Y65.847 E33.08895
G1 X33.305 Y64.927 E33.1196
G1 X33.438 Y64.017 E33.15019
G1 X33.65 Y63.121 E33.18081
G1 X33.939 Y62.246 E33.21146
G1 X34.302 Y61.401 E33.24205
G1 X34.738 Y60.589 E33.27271
G1 X35.242 Y59.819 E33.30331
G1 X35.811 Y59.096 E33.33392
G1 X36.441 Y58.424 E33.36455
G1 X37.127 Y57.81 E33.39517
G1 X38.166 Y57.058 E33.43783
G0 F6000 X38.381 Y57.395
G1 F1200 X38.9 Y57.067 E33.45825
G1 X40.4 Y56.142 E33.51687
G1 X42.537 Y54.738 E33.60191
G1 X44.608 Y53.292 E33.68592
G1 X46.648 Y51.782 E33.77034
G1 X48.633 Y50.222 E33.85431
G1 X49.935 Y49.123 E33.91098
G1 X50.052 Y49.033 E33.91589
G1 X51.104 Y48.16 E33.96135
G1 X51.824 Y47.615 E33.99139
G1 X52.589 Y47.136 E34.02141
G1 X53.394 Y46.726 E34.05146
G1 X54.232 Y46.389 E34.0815
G1 X55.096 Y46.127 E34.11153
G1 X55.98 Y45.943 E34.14156
G1 X56.877 Y45.838 E34.1716
G1 X57.468 Y45.812 E34.19127
G1 X58.372 Y45.8 E34.22134
G1 X83.359 Y45.8 E35.05241
G1 X84.208 Y45.811 E35.08065
G1 X85.109 Y45.864 E35.11067
G1 X86.003 Y45.996 E35.14073
G1 X86.881 Y46.207 E35.17076
G1 X87.737 Y46.495 E35.2008
G1 X88.397 Y46.776 E35.22466
G1 X89.514 Y47.3 E35.2657
G1 X91.823 Y48.343 E35.34997
G1 X94.195 Y49.337 E35.43551
G1 X96.542 Y50.239 E35.51913
G1 X98.955 Y51.092 E35.60426
G1 X101.361 Y51.865 E35.68831
G1 X103.781 Y52.568 E35.77213
G1 X106.288 Y53.221 E35.85829
G1 X108.734 Y53.786 E35.94179
G1 X111.24 Y54.288 E36.02679
G1 X113.711 Y54.711 E36.11018
G1 X116.238 Y55.071 E36.19507
G1 X118.771 Y55.359 E36.27986
G1 X121.307 Y55.575 E36.36452
G1 X123.811 Y55.718 E36.44794
G1 X126.396 Y55.791 E36.53395
G1 X127.721 Y55.8 E36.57802
G1 X167.973 Y55.801 E37.91681
G1 X168.671 Y55.812 E37.94002
G1 X169.572 Y55.866 E37.97004
G1 X170.465 Y56 E38.00008
G1 X171.343 Y56.212 E38.03012
G1 X172.199 Y56.501 E38.06017
G1 X173.025 Y56.865 E38.09019
G1 X173.817 Y57.3 E38.12025
G1 X174.566 Y57.804 E38.15027
G1 X175.269 Y58.372 E38.18033
G1 X175.918 Y58.999 E38.21035
G1 X176.509 Y59.682 E38.24039
G1 X177.038 Y60.414 E38.27043
G1 X177.499 Y61.191 E38.30048
G1 X177.89 Y62.005 E38.33051
G1 X178.208 Y62.85 E38.36054
G1 X178.449 Y63.72 E38.39057
G1 X178.613 Y64.608 E38.4206
G1 X178.706 Y65.723 E38.45781
G1 X178.715 Y66.042 E38.46843
G1 X178.719 Y66.33 E38.47801
G1 X178.718 Y153.39 E41.37364
G1 X178.709 Y154.117 E41.39782
G1 X178.658 Y155.019 E41.42787
G1 X178.527 Y155.913 E41.45792
G1 X178.318 Y156.791 E41.48794
G1 X178.032 Y157.648 E41.51799
G1 X177.671 Y158.476 E41.54803
G1 X177.239 Y159.268 E41.57803
G1 X176.738 Y160.02 E41.60809
G1 X176.172 Y160.724 E41.63813
G1 X175.547 Y161.375 E41.66815
G1 X174.866 Y161.969 E41.6982
G1 X174.135 Y162.5 E41.72825
G1 X173.361 Y162.964 E41.75827
G1 X172.548 Y163.358 E41.78832
G1 X171.704 Y163.678 E41.81834
G1 X170.834 Y163.923 E41.8484
G1 X169.947 Y164.089 E41.87842
G1 X168.796 Y164.187 E41.91684
G1 X168.475 Y164.196 E41.92752
G1 X168.189 Y164.2 E41.93703
G1 X127.722 Y164.2 E43.28297
G1 X125.116 Y164.237 E43.36965
G1 X122.551 Y164.346 E43.45504
G1 X120.044 Y164.524 E43.53864
G1 X117.503 Y164.775 E43.62356
G1 X114.995 Y165.096 E43.70766
G1 X112.49 Y165.49 E43.792
G1 X110.003 Y165.952 E43.87613
G1 X107.489 Y166.493 E43.96166
G1 X105.043 Y167.092 E44.04542
G1 X102.599 Y167.765 E44.12973
G1 X100.164 Y168.51 E44.21443
G1 X97.762 Y169.321 E44.29875
G1 X95.349 Y170.211 E44.38429
G1 X93.015 Y171.148 E44.46794
G1 X90.655 Y172.174 E44.55353
G1 X89.471 Y172.721 E44.59691
G1 X88.389 Y173.227 E44.63664
G1 X87.555 Y173.573 E44.66667
G1 X86.53 Y173.885 E44.70231
G1 X85.645 Y174.065 E44.73235
G1 X84.747 Y174.167 E44.76241
G1 X84.205 Y174.189 E44.78045
G1 X83.37 Y174.2 E44.80822
G1 X58.175 Y174.199 E45.64621
G1 X57.472 Y174.189 E45.6696
G1 X56.57 Y174.136 E45.69965
G1 X55.677 Y174.004 E45.72967
G1 X54.799 Y173.793 E45.75971
G1 X53.943 Y173.505 E45.78974
G1 X53.116 Y173.143 E45.81977
G1 X52.324 Y172.709 E45.84981
G1 X51.573 Y172.207 E45.87985
G1 X51.109 Y171.844 E45.89945
G1 X50.353 Y171.216 E45.93214
G1 X49.533 Y170.515 E45.96802
G1 X47.578 Y168.939 E46.05154
G1 X45.54 Y167.388 E46.13672
G1 X43.49 Y165.918 E46.22062
G1 X41.383 Y164.496 E46.30517
G1 X39.178 Y163.097 E46.39202
G1 X38.498 Y162.678 E46.41859
G1 X37.751 Y162.17 E46.44863
G1 X37.052 Y161.599 E46.47865
G1 X36.406 Y160.968 E46.50869
G1 X35.818 Y160.282 E46.53874
G1 X35.293 Y159.547 E46.56878
G1 X34.835 Y158.769 E46.59881
G1 X34.448 Y157.953 E46.62885
G1 X34.135 Y157.106 E46.65888
G1 X33.898 Y156.234 E46.68893
G1 X33.739 Y155.345 E46.71897
G1 X33.653 Y154.272 E46.75477
G1 X33.644 Y153.942 E46.76575
G1 X33.64 Y153.664 E46.775
G1 X33.641 Y66.522 E49.67336
G1 X33.651 Y65.853 E49.69561
G1 X33.705 Y64.951 E49.72566
G1 X33.838 Y64.058 E49.75569
G1 X34.049 Y63.18 E49.78573
G1 X34.337 Y62.324 E49.81576
G1 X34.7 Y61.497 E49.8458
G1 X35.135 Y60.705 E49.87586
G1 X35.638 Y59.955 E49.90589
G1 X36.205 Y59.253 E49.93591
G1 X36.832 Y58.603 E49.96594
G1 X37.515 Y58.011 E49.99601
G1 X38.381 Y57.395 E50.03135
G1 F1500 E43.53135
;MESH:Case Body.stl
G0 F6000 X51.626 Y65.044
G0 X52.461 Y65.524
G0 X53.515 Y64.649
G0 X58.06 Y56.776
G0 X69.099 Y56.798
G0 X68.045 Y58.979
G0 X68.524 Y64.561
G0 X69.168 Y65.113
G0 X71.391 Y65.538
;TYPE:WALL-INNER
G1 F1500 E50.03135
G1 F1200 X71.763 Y65.424 E50.04429
G1 X72.114 Y65.256 E50.05724
G1 X72.439 Y65.034 E50.07033
G1 X72.723 Y64.769 E50.08325
G1 X72.964 Y64.469 E50.09605
G1 X73.158 Y64.133 E50.10895
G1 X73.301 Y63.771 E50.1219
G1 X73.389 Y63.387 E50.135
G1 X73.416 Y62.938 E50.14996
G1 X73.415 Y58.866 E50.2854
G1 X73.368 Y58.488 E50.29806
G1 X73.263 Y58.114 E50.31098
G1 X73.102 Y57.756 E50.32404
G1 X72.893 Y57.431 E50.33689
G1 X72.635 Y57.139 E50.34985
G1 X72.452 Y56.986 E50.35779
G1 X72.337 Y56.889 E50.36279
G1 X72.007 Y56.687 E50.37566
G1 X71.802 Y56.6 E50.38307
G1 X72.007 Y56.6 E50.38368
G1 X72.337 Y56.6 E50.38858
G1 X72.488 Y56.6 E50.39296
G1 X83.72 Y56.6 E50.76653
G1 X89.494 Y66.6 E51.1506
G1 X97.24 Y66.6 E51.40823
G1 X97.24 Y153.4 E54.29521
G1 X89.494 Y153.4 E54.55284
G1 X83.72 Y163.4 E54.93691
G1 X72.479 Y163.4 E55.31078
G1 X72.438 Y163.4 E55.31215
G1 X72.116 Y163.4 E55.32286
G1 X71.811 Y163.4 E55.333
G1 X72.116 Y163.253 E55.33574
G1 X72.438 Y163.034 E55.34465
G1 X72.468 Y163.007 E55.34594
G1 X72.723 Y162.769 E55.35754
G1 X72.966 Y162.467 E55.37044
G1 X73.161 Y162.129 E55.38341
G1 X73.302 Y161.767 E55.39634
G1 X73.389 Y161.388 E55.40927
G1 X73.416 Y161.022 E55.42148
G1 X73.415 Y156.866 E55.5597
G1 X73.368 Y156.488 E55.57237
G1 X73.263 Y156.114 E55.58529
