;FLAVOR:Marlin
;TIME:20726
;Filament used: 15.896m
;Layer height: 0.2
;MINX:32.712
;MINY:40.335
;MINZ:0.24
;MAXX:183.214
;MAXY:179.664
;MAXZ:26.09
;Generated with Cura_SteamEngine 4.8.0
M140 S65
M105
M190 S65
M104 S215
M105
M109 S215
M82 ;absolute extrusion mode
; Ender 3 Custom Start G-code
G92 E0 ; Reset Extruder
G28 ; Home all axes
G1 Z2.0 F3000 ; Move Z Axis up little to prevent scratching of Heat Bed
G1 X0.1 Y20 Z0.3 F5000.0 ; Move to start position
G1 X0.1 Y200.0 Z0.3 F1500.0 E15 ; Draw the first line
G1 X0.4 Y200.0 Z0.3 F5000.0 ; Move to side a little
G1 X0.4 Y20 Z0.3 F1500.0 E30 ; Draw the second line
G92 E0 ; Reset Extruder
G1 Z2.0 F3000 ; Move Z Axis up little to prevent scratching of Heat Bed
G1 X5 Y20 Z0.3 F5000.0 ; Move over to prevent blob squish
G92 E0
G92 E0
G1 F1500 E-6.5
;LAYER_COUNT:125
;LAYER:-6
M107
G0 F9000 X39.854 Y54.235 Z0.24
;TYPE:SUPPORT-INTERFACE
G1 F1500 E0
G1 F1125 X40.569 Y53.743 E0.06928
G1 X40.753 Y53.626 E0.08669
G1 X41.509 Y53.183 E0.15663
G1 X41.651 Y53.106 E0.16953
G1 X42.483 Y52.697 E0.24353
G1 X42.596 Y52.647 E0.25339
G1 X43.446 Y52.304 E0.32656
G1 X43.619 Y52.242 E0.34123
G1 X44.457 Y51.973 E0.41149
G1 X44.616 Y51.928 E0.42468
G1 X45.496 Y51.714 E0.49697
G1 X45.7 Y51.672 E0.51359
G1 X46.347 Y51.498 E0.56708
G1 X46.979 Y51.237 E0.62166
G1 X47.572 Y50.899 E0.67614
G1 X48.117 Y50.489 E0.73058
G1 X48.608 Y50.013 E0.78517
G1 X49.031 Y49.483 E0.8393
G1 X49.283 Y49.086 E0.87684
G1 X49.469 Y48.765 E0.90645
G1 X49.986 Y47.937 E0.98437
G1 X50.097 Y47.776 E0.99998
G1 X50.623 Y47.059 E1.07096
G1 X50.735 Y46.917 E1.0854
G1 X51.309 Y46.245 E1.15595
G1 X51.423 Y46.122 E1.16934
G1 X52.063 Y45.474 E1.24204
G1 X52.165 Y45.378 E1.25322
G1 X52.873 Y44.758 E1.32834
G1 X52.968 Y44.681 E1.3381
G1 X53.688 Y44.139 E1.41004
G1 X53.84 Y44.033 E1.42483
G1 X54.77 Y43.439 E1.51292
G1 X54.85 Y43.393 E1.52029
G1 X55.696 Y42.937 E1.597
G1 X55.83 Y42.871 E1.60893
G1 X56.652 Y42.503 E1.68082
G1 X56.809 Y42.439 E1.69435
G1 X57.669 Y42.127 E1.76738
G1 X57.804 Y42.084 E1.77869
G1 X58.673 Y41.838 E1.85078
G1 X58.84 Y41.798 E1.86449
G1 X59.722 Y41.617 E1.93636
G1 X59.889 Y41.589 E1.94988
G1 X60.771 Y41.475 E2.02087
G1 X60.94 Y41.46 E2.03441
G1 X62.173 Y41.403 E2.13294
G1 X62.284 Y41.4 E2.1418
G1 X88.545 Y41.401 E4.23807
G1 X89.546 Y41.437 E4.31803
G1 X89.669 Y41.446 E4.32787
G1 X90.586 Y41.548 E4.40152
G1 X90.761 Y41.573 E4.41563
G1 X91.65 Y41.737 E4.48779
G1 X91.773 Y41.765 E4.49786
G1 X92.667 Y41.999 E4.57163
G1 X92.83 Y42.048 E4.58522
G1 X93.672 Y42.334 E4.6562
G1 X93.838 Y42.398 E4.6704
G1 X94.657 Y42.745 E4.7414
G1 X94.802 Y42.814 E4.75422
G1 X95.888 Y43.387 E4.85224
G1 X96.003 Y43.451 E4.86274
G1 X96.834 Y43.978 E4.94129
G1 X96.987 Y44.083 E4.9561
G1 X97.711 Y44.623 E5.0282
G1 X97.838 Y44.725 E5.0412
G1 X98.525 Y45.319 E5.1137
G1 X98.647 Y45.432 E5.12697
G1 X99.277 Y46.065 E5.19826
G1 X99.387 Y46.183 E5.21114
G1 X99.977 Y46.866 E5.28319
G1 X100.079 Y46.993 E5.29619
G1 X100.605 Y47.702 E5.36666
G1 X100.727 Y47.881 E5.38395
G1 X101.279 Y48.755 E5.46647
G1 X101.481 Y49.105 E5.49872
G1 X101.853 Y49.663 E5.55226
G1 X102.3 Y50.179 E5.60675
G1 X102.809 Y50.634 E5.66125
G1 X103.371 Y51.022 E5.71576
G1 X103.978 Y51.336 E5.77032
G1 X104.617 Y51.57 E5.82464
G1 X105.165 Y51.701 E5.86961
G1 X105.364 Y51.737 E5.88575
G1 X105.491 Y51.765 E5.89614
G1 X106.457 Y52.017 E5.97583
G1 X106.98 Y52.16 E6.01911
G1 X106.98 Y52.139 E6.02078
G1 X107.076 Y52.162 E6.02866
G1 X107.755 Y52.231 E6.08314
G1 X108.438 Y52.215 E6.13768
G1 X109.11 Y52.113 E6.19193
G1 X109.595 Y51.984 E6.232
G1 X109.655 Y51.965 E6.23702
G1 X109.788 Y51.928 E6.24804
G1 X110.666 Y51.715 E6.32016
G1 X110.828 Y51.682 E6.33336
G1 X111.721 Y51.534 E6.40561
G1 X111.898 Y51.511 E6.41986
G1 X112.792 Y51.428 E6.49153
G1 X112.934 Y51.421 E6.50288
G1 X113.675 Y51.4 E6.56205
G1 X167.436 Y51.401 E10.85349
G1 X168.437 Y51.437 E10.93344
G1 X168.56 Y51.446 E10.94329
G1 X169.477 Y51.548 E11.01694
G1 X169.652 Y51.573 E11.03105
G1 X170.541 Y51.737 E11.10321
G1 X170.664 Y51.765 E11.11328
G1 X171.558 Y51.999 E11.18705
G1 X171.721 Y52.048 E11.20063
G1 X172.563 Y52.334 E11.27162
G1 X172.729 Y52.398 E11.28582
G1 X173.532 Y52.739 E11.35546
G1 X173.721 Y52.827 E11.3721
G1 X174.515 Y53.235 E11.44336
G1 X174.632 Y53.302 E11.45412
G1 X175.411 Y53.776 E11.52691
G1 X175.562 Y53.876 E11.54137
G1 X176.276 Y54.387 E11.61145
G1 X176.424 Y54.5 E11.62632
G1 X177.116 Y55.077 E11.69824
G1 X177.224 Y55.173 E11.70977
G1 X177.736 Y55.655 E11.7659
G1 X177.892 Y55.812 E11.78357
G1 X178.538 Y56.508 E11.85937
G1 X178.657 Y56.647 E11.87398
G1 X179.211 Y57.338 E11.94468
G1 X179.315 Y57.477 E11.95853
G1 X179.807 Y58.192 E12.02781
G1 X179.924 Y58.376 E12.04522
G1 X180.364 Y59.125 E12.11456
G1 X180.437 Y59.259 E12.12674
G1 X180.842 Y60.082 E12.19996
G1 X180.903 Y60.219 E12.21193
G1 X181.245 Y61.064 E12.2847
G1 X181.304 Y61.23 E12.29876
G1 X181.575 Y62.072 E12.36937
G1 X181.622 Y62.238 E12.38314
G1 X181.833 Y63.107 E12.45452
G1 X181.867 Y63.27 E12.46782
G1 X182.015 Y64.162 E12.53999
G1 X182.039 Y64.348 E12.55496
G1 X182.12 Y65.232 E12.62582
G1 X182.129 Y65.384 E12.63798
G1 X182.15 Y66.117 E12.69651
G1 X182.15 Y153.869 E19.70126
G1 X182.114 Y154.875 E19.78161
G1 X182.104 Y155.01 E19.79242
G1 X182.002 Y155.927 E19.86607
G1 X181.977 Y156.102 E19.88018
G1 X181.815 Y156.98 E19.95145
G1 X181.785 Y157.114 E19.96241
G1 X181.554 Y157.999 E20.03542
G1 X181.502 Y158.171 E20.04976
G1 X181.216 Y159.013 E20.12075
G1 X181.152 Y159.179 E20.13495
G1 X180.811 Y159.982 E20.20459
G1 X180.73 Y160.157 E20.21998
G1 X180.326 Y160.943 E20.29053
G1 X180.248 Y161.082 E20.30325
G1 X179.774 Y161.861 E20.37604
G1 X179.674 Y162.012 E20.3905
G1 X179.163 Y162.726 E20.46058
G1 X179.05 Y162.874 E20.47545
G1 X178.473 Y163.566 E20.54737
G1 X178.377 Y163.674 E20.5589
G1 X177.851 Y164.23 E20.62
G1 X177.745 Y164.336 E20.63197
G1 X177.053 Y164.978 E20.70732
G1 X176.905 Y165.105 E20.72288
G1 X176.212 Y165.661 E20.7938
G1 X176.073 Y165.765 E20.80766
G1 X175.358 Y166.257 E20.87694
G1 X175.174 Y166.374 E20.89435
G1 X174.418 Y166.817 E20.96429
G1 X174.276 Y166.894 E20.97719
G1 X173.448 Y167.301 E21.05084
G1 X173.331 Y167.353 E21.06106
G1 X172.476 Y167.698 E21.13465
G1 X172.313 Y167.756 E21.14846
G1 X171.47 Y168.027 E21.21915
G1 X171.306 Y168.073 E21.23274
G1 X170.434 Y168.285 E21.30438
G1 X170.272 Y168.318 E21.31757
G1 X169.379 Y168.466 E21.38983
G1 X169.202 Y168.489 E21.40408
G1 X168.308 Y168.572 E21.47575
G1 X168.166 Y168.579 E21.4871
G1 X167.425 Y168.6 E21.54627
G1 X113.664 Y168.599 E25.83771
G1 X112.663 Y168.563 E25.91766
G1 X112.54 Y168.554 E25.92751
G1 X111.623 Y168.452 E26.00116
G1 X111.448 Y168.427 E26.01527
G1 X110.559 Y168.263 E26.08743
G1 X110.436 Y168.235 E26.0975
G1 X109.47 Y167.983 E26.17719
G1 X108.947 Y167.84 E26.22047
G1 X108.947 Y167.861 E26.22215
G1 X108.851 Y167.838 E26.23003
G1 X108.172 Y167.769 E26.28451
G1 X107.489 Y167.785 E26.33904
G1 X106.817 Y167.887 E26.3933
G1 X106.332 Y168.016 E26.43336
G1 X106.138 Y168.072 E26.44948
G1 X105.258 Y168.286 E26.52177
G1 X105.054 Y168.328 E26.53839
G1 X104.407 Y168.502 E26.59188
G1 X103.775 Y168.763 E26.64646
G1 X103.182 Y169.101 E26.70094
G1 X102.637 Y169.511 E26.75538
G1 X102.146 Y169.987 E26.80997
G1 X101.723 Y170.517 E26.8641
G1 X101.476 Y170.905 E26.90082
G1 X101.329 Y171.16 E26.92431
G1 X101.254 Y171.284 E26.93588
G1 X100.76 Y172.072 E27.01012
G1 X100.649 Y172.235 E27.02586
G1 X100.134 Y172.936 E27.0953
G1 X100.031 Y173.068 E27.10866
G1 X99.45 Y173.749 E27.18012
G1 X99.322 Y173.888 E27.1952
G1 X98.7 Y174.517 E27.26581
G1 X98.588 Y174.622 E27.27807
G1 X97.883 Y175.239 E27.35285
G1 X97.776 Y175.326 E27.36386
G1 X97.066 Y175.861 E27.43482
G1 X96.915 Y175.966 E27.44951
G1 X96.002 Y176.551 E27.53606
G1 X95.903 Y176.607 E27.54514
G1 X95.057 Y177.063 E27.62186
G1 X94.927 Y177.127 E27.63342
G1 X94.101 Y177.497 E27.70567
G1 X93.944 Y177.561 E27.71921
G1 X93.084 Y177.873 E27.79223
G1 X92.949 Y177.916 E27.80354
G1 X92.08 Y178.162 E27.87564
G1 X91.913 Y178.202 E27.88934
G1 X91.031 Y178.383 E27.96122
G1 X90.864 Y178.411 E27.97473
G1 X89.982 Y178.525 E28.04572
G1 X89.813 Y178.54 E28.05927
G1 X88.58 Y178.597 E28.1578
G1 X88.469 Y178.6 E28.16666
G1 X62.208 Y178.599 E30.26293
G1 X61.207 Y178.563 E30.34288
G1 X61.084 Y178.554 E30.35273
G1 X60.167 Y178.452 E30.42638
G1 X59.992 Y178.427 E30.44049
G1 X59.103 Y178.263 E30.51265
G1 X58.98 Y178.235 E30.52272
G1 X58.086 Y178.001 E30.59649
G1 X57.923 Y177.952 E30.61007
G1 X57.081 Y177.666 E30.68106
G1 X56.915 Y177.602 E30.69526
G1 X56.096 Y177.255 E30.76626
G1 X55.951 Y177.186 E30.77908
G1 X54.862 Y176.612 E30.87734
G1 X54.758 Y176.554 E30.88685
G1 X53.907 Y176.014 E30.9673
G1 X53.766 Y175.917 E30.98096
G1 X53.041 Y175.376 E31.05317
G1 X52.912 Y175.273 E31.06635
G1 X52.228 Y174.681 E31.13856
G1 X52.106 Y174.568 E31.15183
G1 X51.476 Y173.936 E31.22306
G1 X51.366 Y173.818 E31.23594
G1 X50.767 Y173.123 E31.30918
G1 X50.667 Y172.998 E31.32196
G1 X50.126 Y172.269 E31.39442
G1 X50.034 Y172.134 E31.40747
G1 X49.51 Y171.303 E31.48589
G1 X49.277 Y170.903 E31.52284
G1 X48.907 Y170.346 E31.57622
G1 X48.461 Y169.828 E31.63078
G1 X47.953 Y169.372 E31.68527
G1 X47.392 Y168.984 E31.73972
G1 X46.786 Y168.668 E31.79427
G1 X46.147 Y168.434 E31.84859
G1 X45.589 Y168.3 E31.8944
G1 X45.391 Y168.264 E31.91047
G1 X45.263 Y168.235 E31.92094
G1 X44.369 Y168.001 E31.99471
G1 X44.206 Y167.952 E32.0083
G1 X43.364 Y167.666 E32.07928
G1 X43.198 Y167.602 E32.09348
G1 X42.395 Y167.261 E32.16312
G1 X42.206 Y167.173 E32.17976
G1 X41.412 Y166.765 E32.25102
G1 X41.295 Y166.698 E32.26178
G1 X40.516 Y166.224 E32.33457
G1 X40.365 Y166.124 E32.34903
G1 X39.651 Y165.613 E32.41912
G1 X39.503 Y165.5 E32.43398
G1 X38.811 Y164.923 E32.5059
G1 X38.703 Y164.827 E32.51744
G1 X38.191 Y164.345 E32.57357
G1 X38.031 Y164.184 E32.59169
G1 X37.387 Y163.49 E32.66726
G1 X37.27 Y163.353 E32.68164
G1 X36.72 Y162.667 E32.75183
G1 X36.604 Y162.511 E32.76735
G1 X36.12 Y161.808 E32.83548
G1 X36.003 Y161.624 E32.85288
G1 X35.56 Y160.868 E32.92283
G1 X35.483 Y160.726 E32.93572
G1 X35.074 Y159.894 E33.00973
G1 X35.024 Y159.781 E33.01959
G1 X34.675 Y158.917 E33.09397
G1 X34.619 Y158.759 E33.10736
G1 X34.347 Y157.911 E33.17844
G1 X34.305 Y157.761 E33.19088
G1 X34.089 Y156.873 E33.26383
G1 X34.06 Y156.73 E33.27548
G1 X33.91 Y155.824 E33.34878
G1 X33.888 Y155.652 E33.36262
G1 X33.805 Y154.753 E33.43469
G1 X33.798 Y154.616 E33.44564
G1 X33.777 Y153.883 E33.50418
G1 X33.777 Y66.131 E40.50892
G1 X33.813 Y65.125 E40.58927
G1 X33.823 Y64.99 E40.60008
G1 X33.924 Y64.075 E40.67356
G1 X33.95 Y63.9 E40.68769
G1 X34.112 Y63.02 E40.75911
G1 X34.142 Y62.886 E40.77007
G1 X34.373 Y62 E40.84316
G1 X34.425 Y61.829 E40.85743
G1 X34.711 Y60.987 E40.92841
G1 X34.775 Y60.821 E40.94261
G1 X35.116 Y60.018 E41.01225
G1 X35.197 Y59.843 E41.02765
G1 X35.612 Y59.035 E41.10015
G1 X35.679 Y58.918 E41.11092
G1 X36.153 Y58.139 E41.18371
G1 X36.253 Y57.988 E41.19816
G1 X36.769 Y57.267 E41.26894
G1 X36.877 Y57.126 E41.28311
G1 X37.454 Y56.434 E41.35504
G1 X37.55 Y56.326 E41.36657
G1 X38.032 Y55.814 E41.4227
G1 X38.189 Y55.658 E41.44037
G1 X38.885 Y55.012 E41.51617
G1 X39.024 Y54.893 E41.53078
G1 X39.715 Y54.339 E41.60147
G1 X39.854 Y54.235 E41.61533
G0 F9000 X40 Y54.134
G1 F1125 X40 Y165.862 E50.53394
G0 F9000 X41.6 Y166.861
G1 F1125 X41.6 Y53.133 E59.6122
G0 F9000 X43.2 Y52.403
G1 F1125 X43.2 Y167.602 E68.80789
G0 F9000 X44.8 Y168.113
G1 F1125 X44.8 Y51.883 E78.08587
G0 F9000 X46.4 Y51.476
G1 F1125 X46.4 Y168.526 E87.4293
G0 F9000 X48 Y169.414
G1 F1125 X48 Y50.577 E96.91539
G0 F9000 X49.6 Y48.555
G1 F1125 X49.6 Y171.445 E106.725
G0 F9000 X51.2 Y173.625
G1 F1125 X51.2 Y46.372 E116.88288
G0 F9000 X52.8 Y44.821
G1 F1125 X52.8 Y175.176 E127.28838
G0 F9000 X54.4 Y176.326
G1 F1125 X54.4 Y43.675 E137.87716
G0 F9000 X56 Y42.794
G1 F1125 X56 Y177.209 E148.60675
G0 F9000 X57.6 Y177.842
G1 F1125 X57.6 Y42.152 E159.43811
G0 F9000 X59.2 Y41.724
G1 F1125 X59.2 Y178.28 E170.3386
G0 F9000 X60.8 Y178.522
G1 F1125 X60.8 Y41.472 E181.27852
G0 F9000 X62.4 Y41.401
G1 F1125 X62.4 Y178.599 E192.23026
G0 F9000 X64 Y178.599
G1 F1125 X64 Y41.401 E203.182
G0 F9000 X65.6 Y41.401
G1 F1125 X65.6 Y178.599 E214.13374
G0 F9000 X67.2 Y178.599
G1 F1125 X67.2 Y41.401 E225.08547
G0 F9000 X68.8 Y41.401
G1 F1125 X68.8 Y178.599 E236.03721
G0 F9000 X70.4 Y178.599
G1 F1125 X70.4 Y41.401 E246.98895
G0 F9000 X72 Y41.401
G1 F1125 X72 Y178.599 E257.94069
G0 F9000 X73.6 Y178.599
G1 F1125 X73.6 Y41.401 E268.89242
G0 F9000 X75.2 Y41.401
G1 F1125 X75.2 Y178.599 E279.84416
G0 F9000 X76.8 Y178.599
G1 F1125 X76.8 Y41.401 E290.7959
G0 F9000 X78.4 Y41.401
G1 F1125 X78.4 Y178.599 E301.74764
G0 F9000 X80 Y178.599
G1 F1125 X80 Y41.401 E312.69937
G0 F9000 X81.6 Y41.401
G1 F1125 X81.6 Y178.599 E323.65111
G0 F9000 X83.2 Y178.599
G1 F1125 X83.2 Y41.401 E334.60285
G0 F9000 X84.8 Y41.401
G1 F1125 X84.8 Y178.599 E345.55459
G0 F9000 X86.4 Y178.599
G1 F1125 X86.4 Y41.401 E356.50632
G0 F9000 X88 Y41.401
G1 F1125 X88 Y178.599 E367.45806
G0 F9000 X89.6 Y178.55
G1 F1125 X89.6 Y41.441 E378.4027
G0 F9000 X91.2 Y41.654
G1 F1125 X91.2 Y178.349 E389.31428
G0 F9000 X92.8 Y177.959
G1 F1125 X92.8 Y42.039 E400.164
G0 F9000 X94.4 Y42.637
G1 F1125 X94.4 Y177.364 E410.9185
G0 F9000 X96 Y176.553
G1 F1125 X96 Y43.45 E421.54335
G0 F9000 X97.6 Y44.541
G1 F1125 X97.6 Y175.459 E431.99379
G0 F9000 X99.2 Y174.012
G1 F1125 X99.2 Y45.988 E442.21322
G0 F9000 X100.8 Y47.997
G1 F1125 X100.8 Y172.009 E452.1124
G0 F9000 X102.4 Y169.741
G1 F1125 X102.4 Y50.269 E461.64917
G0 F9000 X104 Y51.345
G1 F1125 X104 Y168.671 E471.01464
G0 F9000 X105.6 Y168.203
G1 F1125 X105.6 Y51.794 E480.30691
G0 F9000 X107.2 Y52.175
G1 F1125 X107.2 Y167.829 E489.53891
G0 F9000 X108.8 Y167.832
G1 F1125 X108.8 Y52.16 E498.77235
G0 F9000 X110.4 Y51.779
G1 F1125 X110.4 Y168.225 E508.06757
G0 F9000 X112 Y168.493
G1 F1125 X112 Y51.501 E517.40638
G0 F9000 X113.6 Y51.402
G1 F1125 X113.6 Y168.596 E526.76131
G0 F9000 X115.2 Y168.599
G1 F1125 X115.2 Y51.401 E536.11656
G0 F9000 X116.8 Y51.401
G1 F1125 X116.8 Y168.599 E545.47181
G0 F9000 X118.4 Y168.599
G1 F1125 X118.4 Y51.401 E554.82706
G0 F9000 X120 Y51.401
G1 F1125 X120 Y168.599 E564.18231
G0 F9000 X121.6 Y168.599
G1 F1125 X121.6 Y51.401 E573.53757
G0 F9000 X123.2 Y51.401
G1 F1125 X123.2 Y168.599 E582.89282
G0 F9000 X124.8 Y168.599
G1 F1125 X124.8 Y51.401 E592.24807
G0 F9000 X126.4 Y51.401
G1 F1125 X126.4 Y168.599 E601.60332
G0 F9000 X128 Y168.599
G1 F1125 X128 Y51.401 E610.95857
G0 F9000 X129.6 Y51.401
G1 F1125 X129.6 Y168.599 E620.31382
G0 F9000 X131.2 Y168.599
G1 F1125 X131.2 Y51.401 E629.66907
G0 F9000 X132.8 Y51.401
G1 F1125 X132.8 Y168.599 E639.02432
G0 F9000 X134.4 Y168.599
G1 F1125 X134.4 Y51.401 E648.37958
G0 F9000 X136 Y51.401
G1 F1125 X136 Y168.599 E657.73483
G0 F9000 X137.6 Y168.599
G1 F1125 X137.6 Y51.401 E667.09008
G0 F9000 X139.2 Y51.401
G1 F1125 X139.2 Y168.599 E676.44533
G0 F9000 X140.8 Y168.599
G1 F1125 X140.8 Y51.401 E685.80058
G0 F9000 X142.4 Y51.401
G1 F1125 X142.4 Y168.599 E695.15583
G0 F9000 X144 Y168.599
G1 F1125 X144 Y51.401 E704.51108
G0 F9000 X145.6 Y51.401
G1 F1125 X145.6 Y168.599 E713.86633
G0 F9000 X147.2 Y168.599
G1 F1125 X147.2 Y51.401 E723.22158
G0 F9000 X148.8 Y51.401
G1 F1125 X148.8 Y168.599 E732.57684
G0 F9000 X150.4 Y168.599
G1 F1125 X150.4 Y51.401 E741.93209
G0 F9000 X152 Y51.401
G1 F1125 X152 Y168.599 E751.28734
G0 F9000 X153.6 Y168.599
G1 F1125 X153.6 Y51.401 E760.64259
G0 F9000 X155.2 Y51.401
G1 F1125 X155.2 Y168.599 E769.99784
G0 F9000 X156.8 Y168.599
G1 F1125 X156.8 Y51.401 E779.35309
G0 F9000 X158.4 Y51.401
G1 F1125 X158.4 Y168.599 E788.70834
G0 F9000 X160 Y168.599
G1 F1125 X160 Y51.401 E798.06359
G0 F9000 X161.6 Y51.401
G1 F1125 X161.6 Y168.599 E807.41884
G0 F9000 X163.2 Y168.599
G1 F1125 X163.2 Y51.401 E816.7741
G0 F9000 X164.8 Y51.401
G1 F1125 X164.8 Y168.599 E826.12935
G0 F9000 X166.4 Y168.599
G1 F1125 X166.4 Y51.401 E835.4846
G0 F9000 X168 Y51.422
G1 F1125 X168 Y168.584 E844.83698
G0 F9000 X169.6 Y168.43
G1 F1125 X169.6 Y51.566 E854.16557
G0 F9000 X171.2 Y51.906
G1 F1125 X171.2 Y168.099 E863.44059
G0 F9000 X172.8 Y167.568
G1 F1125 X172.8 Y52.429 E872.63149
