;FLAVOR:Marlin
;TIME:15478
;Filament used: 10.1194m
;Layer height: 0.2
;MINX:29.606
;MINY:45
;MINZ:0.2
;MAXX:193.228
;MAXY:175
;MAXZ:25
;Generated with Cura_SteamEngine 4.8.0
M140 S60
M105
M190 S60
M104 S200
M105
M109 S200
M82 ;absolute extrusion mode
; Ender 3 Custom Start G-code
G92 E0 ; Reset Extruder
G28 ; Home all axes
G1 Z2.0 F3000 ; Move Z Axis up little to prevent scratching of Heat Bed
G1 X0.1 Y20 Z0.3 F5000.0 ; Move to start position
G1 X0.1 Y200.0 Z0.3 F1500.0 E15 ; Draw the first line
G1 X0.4 Y200.0 Z0.3 F5000.0 ; Move to side a little
G1 X0.4 Y20 Z0.3 F1500.0 E30 ; Draw the second line
G92 E0 ; Reset Extruder
G1 Z2.0 F3000 ; Move Z Axis up little to prevent scratching of Heat Bed
G1 X5 Y20 Z0.3 F5000.0 ; Move over to prevent blob squish
G92 E0
G92 E0
G1 F1500 E-6.5
;LAYER_COUNT:125
;LAYER:0
M107
G0 F6000 X35.203 Y56.413 Z0.2
;TYPE:SKIRT
G1 F1500 E0
G1 F1200 X36.716 Y55.48 E0.05912
G1 X38.822 Y54.098 E0.1429
G1 X40.906 Y52.644 E0.22742
G1 X42.899 Y51.169 E0.30989
G1 X44.851 Y49.636 E0.39244
G1 X46.188 Y48.507 E0.45064
G1 X46.357 Y48.377 E0.45773
G1 X47.331 Y47.567 E0.49987
G1 X48.078 Y46.999 E0.53108
G1 X48.589 Y46.664 E0.5514
G1 X49.406 Y46.204 E0.58259
G1 X50.26 Y45.815 E0.6138
G1 X51.143 Y45.5 E0.64498
G1 X52.05 Y45.262 E0.67617
G1 X52.974 Y45.101 E0.70736
G1 X54.23 Y45.011 E0.74924
G1 X55.076 Y45 E0.77739
G1 X80.126 Y45 E1.61055
G1 X80.985 Y45.011 E1.63912
G1 X81.921 Y45.064 E1.67031
G1 X82.849 Y45.197 E1.70149
G1 X83.763 Y45.409 E1.73269
G1 X84.656 Y45.697 E1.7639
G1 X85.496 Y46.049 E1.79419
G1 X86.974 Y46.742 E1.84849
G1 X89.353 Y47.807 E1.93518
G1 X91.658 Y48.763 E2.01818
G1 X94.046 Y49.676 E2.10321
G1 X96.372 Y50.487 E2.18514
G1 X98.789 Y51.256 E2.2695
G1 X101.211 Y51.952 E2.35332
G1 X103.648 Y52.578 E2.437
G1 X106.074 Y53.129 E2.51975
G1 X108.573 Y53.623 E2.60447
G1 X111.061 Y54.041 E2.68838
G1 X113.553 Y54.388 E2.77207
G1 X116.048 Y54.664 E2.85556
G1 X118.556 Y54.869 E2.93925
G1 X121.074 Y55.004 E3.02312
G1 X123.528 Y55.067 E3.10477
G1 X127.337 Y55.032 E3.23146
G1 X128.245 Y55.005 E3.26168
G1 X128.569 Y55 E3.27245
G1 X181.679 Y55.001 E5.0389
G1 X182.377 Y55.011 E5.06212
G1 X183.313 Y55.065 E5.0933
G1 X184.241 Y55.197 E5.12448
G1 X185.155 Y55.409 E5.15568
G1 X186.047 Y55.698 E5.18687
G1 X186.912 Y56.061 E5.21807
G1 X187.742 Y56.497 E5.24925
G1 X188.533 Y57.002 E5.28047
G1 X189.277 Y57.573 E5.31166
G1 X189.97 Y58.205 E5.34285
G1 X190.607 Y58.893 E5.37404
G1 X191.182 Y59.634 E5.40524
G1 X191.693 Y60.42 E5.43642
G1 X192.135 Y61.248 E5.46763
G1 X192.504 Y62.11 E5.49882
G1 X192.799 Y63 E5.53001
G1 X193.017 Y63.912 E5.56119
G1 X193.157 Y64.84 E5.59241
G1 X193.215 Y65.701 E5.62111
G1 X193.224 Y66.021 E5.63176
G1 X193.228 Y66.33 E5.64204
G1 X193.227 Y153.393 E8.53776
G1 X193.218 Y154.126 E8.56214
G1 X193.167 Y155.063 E8.59336
G1 X193.036 Y155.991 E8.62453
G1 X192.826 Y156.905 E8.65572
G1 X192.539 Y157.798 E8.68692
G1 X192.177 Y158.664 E8.71814
G1 X191.743 Y159.495 E8.74932
G1 X191.24 Y160.286 E8.78049
G1 X190.671 Y161.032 E8.8117
G1 X190.04 Y161.726 E8.8429
G1 X189.353 Y162.364 E8.87408
G1 X188.614 Y162.941 E8.90526
G1 X187.828 Y163.454 E8.93648
G1 X187.002 Y163.897 E8.96766
G1 X186.14 Y164.268 E8.99887
G1 X185.251 Y164.565 E9.03004
G1 X184.339 Y164.785 E9.06125
G1 X183.412 Y164.926 E9.09243
G1 X182.527 Y164.987 E9.12194
G1 X182.206 Y164.996 E9.13262
G1 X181.898 Y165 E9.14287
G1 X128.776 Y164.999 E10.90971
G1 X127.312 Y164.977 E10.95841
G1 X125.815 Y164.935 E11.00822
G1 X123.323 Y164.935 E11.0911
G1 X120.764 Y165.007 E11.17625
G1 X118.281 Y165.148 E11.25897
G1 X115.774 Y165.362 E11.34265
G1 X113.279 Y165.646 E11.42617
G1 X110.795 Y165.999 E11.50962
G1 X108.268 Y166.433 E11.5949
G1 X105.85 Y166.918 E11.67693
G1 X103.388 Y167.483 E11.76094
G1 X100.93 Y168.124 E11.84543
G1 X98.554 Y168.815 E11.92773
G1 X96.101 Y169.604 E12.01343
G1 X93.759 Y170.431 E12.09604
G1 X91.395 Y171.342 E12.1803
G1 X89.077 Y172.311 E12.26387
G1 X86.69 Y173.39 E12.35099
G1 X85.51 Y173.945 E12.39436
G1 X84.645 Y174.307 E12.42555
G1 X83.752 Y174.594 E12.45675
G1 X82.838 Y174.805 E12.48795
G1 X81.909 Y174.936 E12.51915
G1 X80.992 Y174.988 E12.5497
G1 X80.074 Y175 E12.58024
G1 X54.931 Y174.999 E13.4165
G1 X54.228 Y174.989 E13.43988
G1 X53.291 Y174.936 E13.4711
G1 X52.363 Y174.803 E13.50228
G1 X51.449 Y174.591 E13.53348
G1 X50.557 Y174.303 E13.56466
G1 X49.692 Y173.939 E13.59587
G1 X48.862 Y173.503 E13.62706
G1 X48.071 Y172.998 E13.65827
G1 X47.364 Y172.459 E13.68784
G1 X46.605 Y171.828 E13.72067
G1 X45.774 Y171.119 E13.757
G1 X43.819 Y169.543 E13.84052
G1 X41.811 Y168.017 E13.9244
G1 X39.781 Y166.562 E14.00747
G1 X37.678 Y165.145 E14.09182
G1 X35.512 Y163.77 E14.17715
G1 X34.844 Y163.358 E14.20325
G1 X34.067 Y162.833 E14.23444
G1 X33.338 Y162.243 E14.26563
G1 X32.662 Y161.593 E14.29682
G1 X32.043 Y160.888 E14.32803
G1 X31.487 Y160.133 E14.35921
G1 X30.997 Y159.333 E14.39042
G1 X30.578 Y158.494 E14.42161
G1 X30.231 Y157.623 E14.45279
G1 X29.959 Y156.725 E14.484
G1 X29.766 Y155.807 E14.5152
G1 X29.65 Y154.877 E14.54637
G1 X29.619 Y154.294 E14.56579
G1 X29.61 Y153.964 E14.57677
G1 X29.606 Y153.664 E14.58675
G1 X29.607 Y66.51 E17.4855
G1 X29.617 Y65.841 E17.50776
G1 X29.671 Y64.904 E17.53897
G1 X29.805 Y63.976 E17.57016
G1 X30.017 Y63.062 E17.60137
G1 X30.306 Y62.17 E17.63255
G1 X30.67 Y61.306 E17.66373
G1 X31.107 Y60.476 E17.69493
G1 X31.612 Y59.686 E17.72612
G1 X32.183 Y58.942 E17.75731
G1 X32.816 Y58.249 E17.78853
G1 X33.505 Y57.613 E17.81972
G1 X34.245 Y57.038 E17.85088
G1 X34.724 Y56.716 E17.87008
G1 X35.203 Y56.413 E17.88893
G0 F6000 X35.413 Y56.754
G1 F1200 X36.923 Y55.823 E17.94793
G1 X39.041 Y54.433 E18.0322
G1 X41.127 Y52.977 E18.1168
G1 X43.16 Y51.473 E18.20092
G1 X45.103 Y49.947 E18.28309
G1 X46.446 Y48.813 E18.34155
G1 X46.617 Y48.681 E18.34874
G1 X47.587 Y47.875 E18.39068
G1 X48.32 Y47.318 E18.4213
G1 X48.8 Y47.004 E18.44038
G1 X49.603 Y46.553 E18.47101
G1 X50.441 Y46.173 E18.50161
G1 X51.31 Y45.867 E18.53226
G1 X52.201 Y45.638 E18.56286
G1 X53.11 Y45.488 E18.5935
G1 X54.235 Y45.411 E18.631
G1 X55.076 Y45.4 E18.65898
G1 X80.126 Y45.4 E19.49214
G1 X80.979 Y45.411 E19.52052
G1 X81.898 Y45.464 E19.55113
G1 X82.809 Y45.597 E19.58175
G1 X83.705 Y45.808 E19.61237
G1 X84.58 Y46.096 E19.64301
G1 X85.326 Y46.412 E19.66996
G1 X86.82 Y47.111 E19.72482
G1 X89.172 Y48.164 E19.81053
G1 X91.542 Y49.147 E19.89586
G1 X93.879 Y50.041 E19.97909
G1 X96.257 Y50.87 E20.06285
G1 X98.679 Y51.64 E20.14738
G1 X101.106 Y52.338 E20.23137
G1 X103.565 Y52.969 E20.31581
G1 X106.006 Y53.524 E20.39907
G1 X108.501 Y54.017 E20.48366
G1 X110.977 Y54.433 E20.56716
G1 X113.49 Y54.783 E20.65155
G1 X116.005 Y55.061 E20.73571
G1 X118.539 Y55.269 E20.82027
G1 X121.043 Y55.402 E20.90368
G1 X123.55 Y55.466 E20.98709
G1 X127.354 Y55.432 E21.11361
G1 X128.257 Y55.405 E21.14366
G1 X128.569 Y55.4 E21.15404
G1 X181.673 Y55.401 E22.92028
G1 X182.371 Y55.411 E22.9435
G1 X183.29 Y55.464 E22.97412
G1 X184.201 Y55.597 E23.00474
G1 X185.097 Y55.808 E23.03536
G1 X185.971 Y56.096 E23.06596
G1 X186.818 Y56.459 E23.09661
G1 X187.629 Y56.894 E23.12722
G1 X188.399 Y57.398 E23.15783
G1 X189.123 Y57.967 E23.18846
G1 X189.795 Y58.597 E23.2191
G1 X190.41 Y59.282 E23.24971
G1 X190.963 Y60.018 E23.28033
G1 X191.45 Y60.799 E23.31095
G1 X191.867 Y61.62 E23.34157
G1 X192.212 Y62.474 E23.37221
G1 X192.481 Y63.354 E23.40281
G1 X192.673 Y64.255 E23.43345
G1 X192.786 Y65.168 E23.46405
G1 X192.815 Y65.712 E23.48217
G1 X192.824 Y66.032 E23.49282
G1 X192.828 Y66.33 E23.50273
G1 X192.827 Y153.388 E26.39829
G1 X192.818 Y154.121 E26.42267
G1 X192.767 Y155.04 E26.45329
G1 X192.636 Y155.952 E26.48393
G1 X192.427 Y156.848 E26.51453
G1 X192.14 Y157.723 E26.54516
G1 X191.779 Y158.57 E26.57578
G1 X191.346 Y159.382 E26.60639
G1 X190.843 Y160.154 E26.63704
G1 X190.276 Y160.879 E26.66765
G1 X189.648 Y161.552 E26.69826
G1 X188.964 Y162.168 E26.72888
G1 X188.229 Y162.723 E26.75951
G1 X187.449 Y163.211 E26.79011
G1 X186.629 Y163.63 E26.82074
G1 X185.776 Y163.976 E26.85136
G1 X184.896 Y164.247 E26.88198
G1 X183.996 Y164.441 E26.9126
G1 X183.082 Y164.556 E26.94324
G1 X182.516 Y164.587 E26.9621
G1 X182.195 Y164.596 E26.97278
G1 X181.898 Y164.6 E26.98266
G1 X128.782 Y164.599 E28.7493
G1 X127.323 Y164.577 E28.79784
G1 X125.826 Y164.535 E28.84765
G1 X123.312 Y164.535 E28.93126
G1 X120.766 Y164.607 E29.01598
G1 X118.259 Y164.749 E29.09949
G1 X115.727 Y164.965 E29.18401
G1 X113.218 Y165.25 E29.268
G1 X110.703 Y165.609 E29.3525
G1 X108.228 Y166.033 E29.43601
G1 X105.761 Y166.528 E29.5197
G1 X103.295 Y167.094 E29.60385
G1 X100.832 Y167.736 E29.68851
G1 X98.415 Y168.439 E29.77223
G1 X95.993 Y169.218 E29.85685
G1 X93.618 Y170.057 E29.94063
G1 X91.246 Y170.971 E30.02518
G1 X88.937 Y171.936 E30.10841
G1 X86.48 Y173.047 E30.1981
G1 X85.34 Y173.583 E30.24
G1 X84.49 Y173.938 E30.27063
G1 X83.613 Y174.218 E30.30125
G1 X82.715 Y174.42 E30.33187
G1 X81.803 Y174.544 E30.36248
G1 X80.986 Y174.588 E30.38969
G1 X80.074 Y174.6 E30.42003
G1 X54.936 Y174.599 E31.25612
G1 X54.233 Y174.589 E31.27951
G1 X53.314 Y174.536 E31.31012
G1 X52.403 Y174.403 E31.34074
G1 X51.507 Y174.192 E31.37136
G1 X50.633 Y173.904 E31.40197
G1 X49.786 Y173.541 E31.43262
G1 X48.975 Y173.106 E31.46323
G1 X48.204 Y172.602 E31.49386
G1 X47.619 Y172.151 E31.51843
G1 X46.865 Y171.524 E31.55105
G1 X46.04 Y170.819 E31.58714
G1 X44.055 Y169.22 E31.67192
G1 X42.064 Y167.706 E31.75511
G1 X40.008 Y166.233 E31.83923
G1 X37.894 Y164.808 E31.92403
G1 X35.752 Y163.448 E32.00842
G1 X35.054 Y163.018 E32.03568
G1 X34.292 Y162.501 E32.06631
G1 X33.577 Y161.921 E32.09693
G1 X32.916 Y161.28 E32.12756
G1 X32.313 Y160.584 E32.15819
G1 X31.772 Y159.839 E32.18881
G1 X31.298 Y159.05 E32.21942
G1 X30.895 Y158.222 E32.25005
G1 X30.565 Y157.363 E32.28066
G1 X30.31 Y156.478 E32.31129
G1 X30.134 Y155.575 E32.34189
G1 X30.019 Y154.283 E32.38503
G1 X30.01 Y153.953 E32.39601
G1 X30.006 Y153.664 E32.40562
G1 X30.007 Y66.516 E35.30418
G1 X30.017 Y65.847 E35.32643
G1 X30.071 Y64.927 E35.35708
G1 X30.204 Y64.017 E35.38767
G1 X30.416 Y63.121 E35.4183
G1 X30.705 Y62.246 E35.44894
G1 X31.068 Y61.401 E35.47953
G1 X31.504 Y60.589 E35.51019
G1 X32.008 Y59.819 E35.5408
G1 X32.577 Y59.096 E35.5714
G1 X33.207 Y58.424 E35.60203
G1 X33.893 Y57.81 E35.63265
G1 X34.938 Y57.054 E35.67555
G1 X35.413 Y56.754 E35.69424
G0 F6000 X35.623 Y57.094
G1 F1200 X37.148 Y56.154 E35.75382
G1 X39.267 Y54.763 E35.83813
G1 X41.371 Y53.295 E35.92346
G1 X43.378 Y51.81 E36.0065
G1 X45.355 Y50.257 E36.09011
G1 X46.704 Y49.118 E36.14884
G1 X46.889 Y48.976 E36.15659
G1 X47.843 Y48.183 E36.19785
G1 X48.562 Y47.637 E36.22788
G1 X49.011 Y47.344 E36.24571
G1 X49.799 Y46.902 E36.27576
G1 X50.622 Y46.531 E36.30579
G1 X51.475 Y46.235 E36.33582
G1 X52.351 Y46.016 E36.36585
G1 X53.243 Y45.875 E36.39589
G1 X54.241 Y45.811 E36.42915
G1 X55.076 Y45.8 E36.45693
G1 X80.126 Y45.8 E37.29009
G1 X80.973 Y45.811 E37.31827
G1 X81.875 Y45.864 E37.34832
G1 X82.768 Y45.996 E37.37834
G1 X83.646 Y46.207 E37.40838
G1 X84.502 Y46.495 E37.43842
G1 X85.156 Y46.774 E37.46206
G1 X86.617 Y47.458 E37.51572
G1 X89.035 Y48.541 E37.60384
G1 X91.363 Y49.506 E37.68766
G1 X93.77 Y50.427 E37.77338
G1 X96.119 Y51.245 E37.85611
G1 X98.575 Y52.027 E37.94183
G1 X100.969 Y52.715 E38.02468
G1 X103.491 Y53.362 E38.11128
G1 X105.911 Y53.912 E38.19382
G1 X108.428 Y54.41 E38.27916
G1 X110.921 Y54.829 E38.36324
G1 X113.463 Y55.183 E38.4486
G1 X115.965 Y55.459 E38.53233
G1 X118.519 Y55.669 E38.61756
G1 X121.012 Y55.802 E38.70059
G1 X123.544 Y55.866 E38.78484
G1 X127.32 Y55.832 E38.91043
G1 X128.269 Y55.804 E38.94201
G1 X128.569 Y55.8 E38.95199
G1 X181.667 Y55.801 E40.71803
G1 X182.365 Y55.811 E40.74125
G1 X183.267 Y55.864 E40.7713
G1 X184.16 Y55.996 E40.80133
G1 X185.038 Y56.207 E40.83136
G1 X185.894 Y56.495 E40.8614
G1 X186.721 Y56.857 E40.89143
G1 X187.513 Y57.292 E40.92148
G1 X188.264 Y57.794 E40.95153
G1 X188.967 Y58.361 E40.98156
G1 X189.617 Y58.988 E41.0116
G1 X190.209 Y59.67 E41.04164
G1 X190.739 Y60.401 E41.07167
G1 X191.201 Y61.177 E41.10171
G1 X191.594 Y61.99 E41.13174
G1 X191.912 Y62.835 E41.16177
G1 X192.155 Y63.705 E41.19182
G1 X192.32 Y64.593 E41.22186
G1 X192.415 Y65.723 E41.25957
G1 X192.424 Y66.043 E41.27022
G1 X192.428 Y66.33 E41.27977
G1 X192.427 Y153.383 E44.17516
G1 X192.418 Y154.116 E44.19954
G1 X192.367 Y155.018 E44.22959
G1 X192.237 Y155.912 E44.25964
G1 X192.027 Y156.79 E44.28966
G1 X191.741 Y157.647 E44.31971
G1 X191.381 Y158.475 E44.34974
G1 X190.948 Y159.267 E44.37977
G1 X190.447 Y160.019 E44.40982
G1 X189.882 Y160.723 E44.43984
G1 X189.256 Y161.374 E44.46988
G1 X188.576 Y161.968 E44.49991
G1 X187.845 Y162.499 E44.52996
G1 X187.071 Y162.963 E44.55998
G1 X186.258 Y163.357 E44.59003
G1 X185.414 Y163.678 E44.62006
G1 X184.544 Y163.922 E44.65011
G1 X183.657 Y164.089 E44.68013
G1 X182.505 Y164.187 E44.71859
G1 X182.184 Y164.196 E44.72927
G1 X181.898 Y164.2 E44.73878
G1 X128.788 Y164.199 E46.50523
G1 X127.334 Y164.177 E46.55359
G1 X125.837 Y164.135 E46.6034
G1 X123.3 Y164.135 E46.68778
G1 X120.767 Y164.207 E46.77207
G1 X118.203 Y164.352 E46.85748
G1 X115.684 Y164.566 E46.94156
G1 X113.183 Y164.851 E47.02529
G1 X110.656 Y165.211 E47.11018
G1 X108.154 Y165.641 E47.19462
G1 X105.657 Y166.141 E47.27932
G1 X103.209 Y166.703 E47.36286
G1 X100.724 Y167.35 E47.44827
G1 X98.296 Y168.057 E47.53238
G1 X95.874 Y168.836 E47.617
G1 X93.478 Y169.682 E47.70151
G1 X91.096 Y170.6 E47.78641
G1 X88.755 Y171.579 E47.87081
G1 X86.352 Y172.666 E47.95853
G1 X85.17 Y173.221 E48.00196
G1 X84.336 Y173.568 E48.03201
G1 X83.475 Y173.841 E48.06205
G1 X82.593 Y174.036 E48.09209
G1 X81.698 Y174.152 E48.12211
G1 X80.98 Y174.188 E48.14602
G1 X80.074 Y174.2 E48.17616
G1 X54.942 Y174.199 E49.01205
G1 X54.239 Y174.189 E49.03543
G1 X53.337 Y174.136 E49.06549
G1 X52.444 Y174.004 E49.09551
G1 X51.566 Y173.793 E49.12555
G1 X50.71 Y173.505 E49.15558
G1 X49.883 Y173.143 E49.18561
G1 X49.091 Y172.709 E49.21565
G1 X48.34 Y172.207 E49.24569
G1 X47.875 Y171.843 E49.26533
G1 X47.125 Y171.22 E49.29776
G1 X46.284 Y170.502 E49.33454
G1 X44.325 Y168.923 E49.41823
G1 X42.293 Y167.378 E49.50313
G1 X40.219 Y165.892 E49.58799
G1 X38.136 Y164.488 E49.67154
G1 X35.95 Y163.101 E49.75765
G1 X35.263 Y162.677 E49.7845
G1 X34.516 Y162.17 E49.81452
G1 X33.817 Y161.599 E49.84454
G1 X33.171 Y160.967 E49.8746
G1 X32.583 Y160.282 E49.90463
G1 X32.059 Y159.547 E49.93465
G1 X31.601 Y158.768 E49.96471
G1 X31.214 Y157.952 E49.99475
G1 X30.901 Y157.105 E50.02478
G1 X30.664 Y156.234 E50.0548
G1 X30.505 Y155.345 E50.08484
G1 X30.419 Y154.272 E50.12064
G1 X30.41 Y153.942 E50.13162
G1 X30.406 Y153.664 E50.14087
G1 X30.407 Y66.522 E53.03922
G1 X30.417 Y65.853 E53.06148
G1 X30.471 Y64.951 E53.09153
G1 X30.604 Y64.058 E53.12156
G1 X30.815 Y63.18 E53.15159
G1 X31.103 Y62.324 E53.18163
G1 X31.466 Y61.497 E53.21167
G1 X31.901 Y60.705 E53.24173
G1 X32.404 Y59.955 E53.27176
G1 X32.971 Y59.253 E53.30177
G1 X33.598 Y58.603 E53.33181
G1 X34.281 Y58.011 E53.36188
G1 X35.152 Y57.392 E53.39742
G1 X35.623 Y57.094 E53.41595
G1 F1500 E46.91595
G0 F6000 X53.999 Y55.341
G0 X81.214 Y55.341
G0 X95.259 Y65.347
G0 X95.606 Y106.442
G1 F1500 E53.41595
G1 F1200 X95.876 Y106.442 E53.42493
G1 X95.876 Y116.042 E53.74423
G1 X95.606 Y116.042 E53.75321
G1 X95.606 Y106.442 E54.07251
G0 F6000 X95.606 Y127.89
G1 F1200 X96.162 Y127.89 E54.091
G1 X96.162 Y137.49 E54.4103
G1 X95.606 Y137.49 E54.42879
G1 X95.606 Y127.89 E54.74809
G1 F1500 E48.24809
;MESH:Case Body.stl
G0 F6000 X93.796 Y127.89
G0 X93.814 Y116.307
G0 X93.824 Y66.782
G0 X86.159 Y66.776
G0 X80.386 Y56.776
G0 X69.309 Y56.796
G0 X70.354 Y58.972
G0 X69.704 Y64.786
G0 X67.902 Y65.582
;TYPE:WALL-INNER
G1 F1500 E54.74809
G1 F1200 X68.287 Y65.504 E54.76115
G1 X68.65 Y65.374 E54.77398
G1 X68.995 Y65.185 E54.78706
G1 X69.304 Y64.951 E54.79995
G1 X69.573 Y64.675 E54.81277
G1 X69.803 Y64.358 E54.8258
G1 X69.981 Y64.01 E54.8388
G1 X70.104 Y63.642 E54.8517
G1 X70.171 Y63.262 E54.86454
G1 X70.183 Y62.931 E54.87555
G1 X70.183 Y58.979 E55.007
G1 X70.157 Y58.616 E55.0191
G1 X70.07 Y58.237 E55.03204
G1 X69.93 Y57.875 E55.04495
G1 X69.734 Y57.536 E55.05797
G1 X69.492 Y57.233 E55.07087
G1 X69.235 Y56.994 E55.08254
